src/link.svg

<svg width="24" height="24" viewBox="0 0 24 24" xmlns="http://www.w3.org/2000/svg">
<path fill-rule="evenodd" clip-rule="evenodd" d="M20.0735 10.0147L17.7794 12.3088C17.1618 12.9265 16.4118 13.2353 15.5294 13.2353C14.6324 13.2353 13.8676 12.9118 13.2353 12.2647L12.2647 13.2353C12.9118 13.8676 13.2353 14.636 13.2353 15.5404C13.2353 16.4228 12.9301 17.1691 12.3199 17.7794L10.0478 20.0625C9.4375 20.6875 8.6875 21 7.79779 21C6.91544 21 6.16911 20.6948 5.55882 20.0846L3.9375 18.4743C3.3125 17.864 3 17.1176 3 16.2353C3 15.3529 3.30882 14.6029 3.92647 13.9853L6.22059 11.6912C6.83824 11.0735 7.58824 10.7647 8.47059 10.7647C9.36764 10.7647 10.1324 11.0882 10.7647 11.7353L11.7353 10.7647C11.0882 10.1324 10.7647 9.36397 10.7647 8.45956C10.7647 7.57721 11.0699 6.83088 11.6801 6.22059L13.9522 3.9375C14.5625 3.3125 15.3125 3 16.2022 3C17.0846 3 17.8309 3.30515 18.4412 3.91544L20.0625 5.52574C20.6875 6.13603 21 6.88235 21 7.76471C21 8.64706 20.6912 9.39706 20.0735 10.0147M10.6367 14.8453C10.6147 14.8674 10.5468 14.9374 10.433 15.0552C10.3193 15.1731 10.2404 15.2523 10.1963 15.2928C10.1523 15.3333 10.0826 15.3886 9.98716 15.4586C9.89174 15.5285 9.79816 15.5764 9.70642 15.6022C9.61468 15.628 9.51376 15.6409 9.40367 15.6409C9.11009 15.6409 8.86055 15.5378 8.65505 15.3315C8.44954 15.1252 8.34679 14.8748 8.34679 14.5801C8.34679 14.4696 8.35964 14.3683 8.38532 14.2762C8.41101 14.1842 8.45872 14.0902 8.52844 13.9945C8.59816 13.8987 8.65321 13.8287 8.69358 13.7845C8.73395 13.7403 8.81284 13.6611 8.93028 13.547C9.04771 13.4328 9.11743 13.3646 9.13945 13.3425C8.91927 13.1142 8.65505 13 8.34679 13C8.04588 13 7.79633 13.0994 7.59817 13.2983L5.30826 15.5967C5.10275 15.803 5 16.0534 5 16.3481C5 16.6354 5.10275 16.8821 5.30826 17.0884L6.92661 18.7017C7.13945 18.9006 7.38899 19 7.67523 19C7.96881 19 8.21834 18.8969 8.42385 18.6906L10.6917 16.4033C10.8973 16.197 11 15.9466 11 15.6519C11 15.3425 10.8789 15.0737 10.6367 14.8453M18.6917 6.90055L17.0734 5.28729C16.8679 5.09577 16.6184 5 16.3248 5C16.0239 5 15.7743 5.09945 15.5761 5.29834L13.3083 7.58564C13.1027 7.7919 13 8.04235 13 8.33702C13 8.64641 13.1211 8.91528 13.3633 9.14365C13.3853 9.12155 13.4532 9.05157 13.567 8.9337C13.6807 8.81583 13.7596 8.73665 13.8037 8.69613C13.8477 8.65561 13.9174 8.60036 14.0128 8.53039C14.1083 8.46041 14.2018 8.41252 14.2936 8.38674C14.3853 8.36096 14.4862 8.34807 14.5963 8.34807C14.8899 8.34807 15.1394 8.45119 15.345 8.65746C15.5505 8.86372 15.6532 9.11418 15.6532 9.40884C15.6532 9.51934 15.6404 9.62063 15.6147 9.71271C15.589 9.80478 15.5413 9.89871 15.4716 9.99448C15.4018 10.0902 15.3468 10.1602 15.3064 10.2044C15.2661 10.2486 15.1872 10.3278 15.0697 10.442C14.9523 10.5562 14.8826 10.6243 14.8606 10.6464C15.0807 10.8821 15.345 11 15.6532 11C15.9468 11 16.1963 10.8969 16.4018 10.6906L18.6917 8.39227C18.8973 8.186 19 7.93555 19 7.64088C19 7.35359 18.8973 7.10682 18.6917 6.90055" fill="currentColor"/>
</svg>

<svg width="24" height="24" viewBox="0 0 24 24" xmlns="http://www.w3.org/2000/svg" xmlns:xlink="http://www.w3.org/1999/xlink">
  <path d="M20.074 10.015l-2.295 2.294a3.063 3.063 0 0 1-2.25.926c-.897 0-1.661-.323-2.294-.97l-.97.97c.647.633.97 1.401.97 2.305 0 .883-.305 1.63-.915 2.24l-2.272 2.282c-.61.626-1.36.938-2.25.938-.883 0-1.629-.305-2.24-.915l-1.62-1.61C3.312 17.863 3 17.117 3 16.234c0-.882.309-1.632.926-2.25l2.295-2.294a3.063 3.063 0 0 1 2.25-.926c.897 0 1.661.323 2.294.97l.97-.97a3.102 3.102 0 0 1-.97-2.305c0-.883.305-1.63.915-2.24l2.272-2.282c.61-.626 1.36-.938 2.25-.938.883 0 1.629.305 2.24.915l1.62 1.61c.626.611.938 1.357.938 2.24 0 .882-.309 1.632-.926 2.25m-9.437 4.83l-.204.21a6.818 6.818 0 0 1-.237.238 2.62 2.62 0 0 1-.209.166.884.884 0 0 1-.583.182c-.294 0-.543-.103-.749-.31a1.025 1.025 0 0 1-.308-.75.89.89 0 0 1 .182-.586 2.482 2.482 0 0 1 .401-.448l.21-.204A1.062 1.062 0 0 0 8.346 13c-.301 0-.55.1-.749.298l-2.29 2.299a1.025 1.025 0 0 0-.308.751c0 .287.103.534.308.74l1.619 1.614c.212.199.462.298.748.298.294 0 .543-.103.749-.31l2.268-2.287c.205-.206.308-.456.308-.751 0-.31-.121-.578-.363-.807m8.055-7.944l-1.619-1.614A1.058 1.058 0 0 0 16.325 5c-.301 0-.55.1-.749.298l-2.268 2.288a1.025 1.025 0 0 0-.308.751c0 .31.121.578.363.807l.204-.21c.114-.118.193-.197.237-.238a2.62 2.62 0 0 1 .209-.166.884.884 0 0 1 .583-.182c.294 0 .543.103.749.31.205.206.308.456.308.75a.89.89 0 0 1-.182.586 2.482 2.482 0 0 1-.401.448l-.21.204c.22.236.485.354.793.354.294 0 .543-.103.749-.31l2.29-2.298c.205-.206.308-.456.308-.751 0-.287-.103-.534-.308-.74" fill="currentColor"/>
</svg>
